public/logos/clark.svg

<svg xmlns="http://www.w3.org/2000/svg" width="83" height="25" viewBox="0 0 83 25" fill="none">
<path d="M12.0496 16.2189C14.1207 16.2189 15.7997 14.5399 15.7997 12.4688C15.7997 10.3977 14.1207 8.71875 12.0496 8.71875C9.97851 8.71875 8.29956 10.3977 8.29956 12.4688C8.29956 14.5399 9.97851 16.2189 12.0496 16.2189Z" fill="white"/>
<path d="M18.8064 21.3475C19.1255 21.6666 19.0935 22.1947 18.7186 22.4459C16.8112 23.7236 14.517 24.4686 12.0489 24.4686C9.58068 24.4686 7.28651 23.7236 5.37909 22.4459C5.00422 22.1947 4.97218 21.6666 5.29124 21.3475L8.03172 18.6069C8.27942 18.3593 8.66365 18.3201 8.97541 18.4799C9.89724 18.9521 10.9419 19.2185 12.0489 19.2185C13.1558 19.2185 14.2005 18.9521 15.1224 18.4799C15.4341 18.3201 15.8183 18.3593 16.066 18.6069L18.8064 21.3475Z" fill="white"/>
<path d="M18.7195 2.49153C19.0944 2.74264 19.1264 3.27086 18.8073 3.58992L16.0669 6.33043C15.8191 6.57811 15.4349 6.61723 15.1231 6.45752C14.2013 5.98528 13.1566 5.71883 12.0497 5.71883C8.32173 5.71883 5.29962 8.74096 5.29962 12.4689C5.29962 13.5759 5.56606 14.6206 6.03831 15.5425C6.19802 15.8542 6.1589 16.2383 5.91121 16.4861L3.17072 19.2266C2.85166 19.5456 2.32344 19.5136 2.07233 19.1388C0.794715 17.2313 0.0495605 14.9371 0.0495605 12.4689C0.0495605 5.84142 5.42221 0.46875 12.0497 0.46875C14.5179 0.46875 16.8121 1.21391 18.7195 2.49153Z" fill="white"/>
<path fill-rule="evenodd" clip-rule="evenodd" d="M39.2375 2.90626C39.2375 2.8027 39.3214 2.71875 39.425 2.71875H42.2376C42.341 2.71875 42.425 2.8027 42.425 2.90626V22.0316C42.425 22.1351 42.341 22.2191 42.2376 22.2191H39.425C39.3214 22.2191 39.2375 22.1351 39.2375 22.0316V2.90626ZM35.2682 18.1625C35.1936 18.0979 35.0818 18.1027 35.0101 18.1705C34.5717 18.5842 34.0584 18.9153 33.4957 19.1461C32.8786 19.3995 32.2151 19.5271 31.5459 19.5211C30.9808 19.5378 30.4182 19.4411 29.8927 19.237C29.3672 19.0329 28.8899 18.7257 28.4903 18.3342C27.7644 17.5931 27.3467 16.5351 27.3467 15.2739C27.3467 12.749 29.0264 11.0221 31.5459 11.0221C32.2218 11.0128 32.8913 11.1497 33.5068 11.4228C34.0648 11.6705 34.5658 12.0247 34.9809 12.464C35.0518 12.5391 35.1697 12.5478 35.248 12.4801L37.1467 10.8371C37.2243 10.77 37.2336 10.6528 37.1652 10.5764C35.7371 8.98042 33.4996 8.15634 31.3718 8.15634C27.0876 8.15634 24.0498 11.0462 24.0498 15.2979C24.0498 17.4007 24.8047 19.1714 26.078 20.4217C27.3512 21.6721 29.165 22.4065 31.2578 22.4065C33.8821 22.4065 35.9943 21.4002 37.2325 20.1093C37.3052 20.0336 37.2972 19.913 37.2177 19.8444L35.2682 18.1625ZM57.9183 16.2098C57.9078 16.3036 57.8279 16.3739 57.7334 16.3739H47.881C47.7612 16.3739 47.672 16.485 47.7032 16.6004C48.1934 18.4175 49.6549 19.517 51.6496 19.517C52.322 19.5312 52.9885 19.3927 53.5976 19.1126C54.1652 18.8517 54.6688 18.4741 55.0746 18.0061C55.1236 17.9495 55.2091 17.9411 55.2666 17.9891L57.2474 19.7137C57.3233 19.7797 57.3338 19.894 57.2687 19.9706C56.0728 21.3814 54.1352 22.4065 51.4762 22.4065C47.3856 22.4065 44.3 19.5738 44.3 15.2701C44.3 13.1587 45.0269 11.3881 46.2384 10.1379C46.878 9.49503 47.6447 8.98766 48.4911 8.64708C49.3377 8.30652 50.2461 8.13993 51.1605 8.15761C55.3066 8.15761 57.9877 11.0735 57.9877 15.0996C57.9825 15.4706 57.9593 15.8411 57.9183 16.2098ZM47.7624 13.5968C47.7276 13.7125 47.817 13.8252 47.9379 13.8252H54.489C54.61 13.8252 54.6995 13.7118 54.6659 13.5955C54.2194 12.0501 53.0865 11.0188 51.3272 11.0188C50.8097 11.0024 50.2948 11.0961 49.8174 11.2933C49.3402 11.4907 48.9118 11.787 48.5617 12.1619C48.1935 12.5793 47.9214 13.0688 47.7624 13.5968ZM67.7357 8.1584C67.8401 8.15726 67.9253 8.24153 67.9253 8.34589V11.4949C67.9253 11.604 67.8325 11.69 67.7236 11.682C67.4197 11.6594 67.1324 11.6403 66.944 11.6403C64.4906 11.6403 63.0503 13.367 63.0503 15.6336V22.0316C63.0503 22.1351 62.9663 22.2191 62.8627 22.2191H60.0502C59.9466 22.2191 59.8626 22.1351 59.8626 22.0316V8.54056C59.8626 8.43701 59.9466 8.35307 60.0502 8.35307H62.8627C62.9663 8.35307 63.0503 8.43701 63.0503 8.54056V10.4341C63.0503 10.4448 63.0588 10.4535 63.0696 10.4535C63.0756 10.4535 63.0815 10.4506 63.0851 10.4457C64.1846 8.97746 65.8073 8.16073 67.5216 8.16073L67.7357 8.1584ZM75.3543 16.4056C75.3658 16.3932 75.382 16.3863 75.3989 16.3863C75.4198 16.3863 75.4393 16.3971 75.4504 16.415L79.0067 22.1307C79.0408 22.1856 79.1011 22.2191 79.1659 22.2191H82.363C82.5101 22.2191 82.5998 22.0577 82.5225 21.9328L77.6436 14.0608C77.5995 13.9897 77.6079 13.8981 77.664 13.8361L82.3647 8.64982C82.4739 8.5293 82.3885 8.33639 82.2258 8.33639H78.8904C78.8379 8.33639 78.7877 8.35843 78.7521 8.39713L73.3135 14.3256C73.1979 14.4516 72.9878 14.3699 72.9878 14.1988V2.90625C72.9878 2.8027 72.9039 2.71875 72.8003 2.71875H69.9879C69.8843 2.71875 69.8003 2.8027 69.8003 2.90625V22.0316C69.8003 22.1351 69.8843 22.2191 69.9879 22.2191H72.8003C72.9039 22.2191 72.9878 22.1351 72.9878 22.0316V19.0219C72.9878 18.9746 73.0058 18.9289 73.038 18.8942L75.3543 16.4056Z" fill="white"/>
</svg>

<svg xmlns="http://www.w3.org/2000/svg" width="83" height="25" fill="none"><path fill="#fff" d="M12.05 16.219a3.75 3.75 0 1 0 0-7.5 3.75 3.75 0 0 0 0 7.5M18.806 21.348c.32.319.287.847-.087 1.098a11.94 11.94 0 0 1-6.67 2.023c-2.468 0-4.762-.745-6.67-2.023-.375-.251-.407-.78-.088-1.099l2.74-2.74c.248-.248.633-.287.944-.127a6.7 6.7 0 0 0 3.074.738 6.7 6.7 0 0 0 3.073-.738c.312-.16.696-.12.944.127z"/><path fill="#fff" d="M18.72 2.492c.374.25.406.779.087 1.098l-2.74 2.74c-.248.248-.632.287-.944.128a6.75 6.75 0 0 0-9.085 9.085c.16.311.12.695-.127.943l-2.74 2.74c-.32.32-.848.288-1.099-.087a11.95 11.95 0 0 1-2.022-6.67c0-6.628 5.372-12 12-12 2.468 0 4.762.745 6.67 2.023"/><path fill="#fff" fill-rule="evenodd" d="M39.238 2.906c0-.103.083-.187.187-.187h2.813c.103 0 .187.084.187.187v19.126a.19.19 0 0 1-.187.187h-2.813a.19.19 0 0 1-.187-.187zm-3.97 15.257a.193.193 0 0 0-.258.008 4.9 4.9 0 0 1-1.514.975 5 5 0 0 1-1.95.375 4.2 4.2 0 0 1-1.653-.284 4.15 4.15 0 0 1-1.403-.903c-.726-.74-1.143-1.799-1.143-3.06 0-2.525 1.68-4.252 4.199-4.252a4.7 4.7 0 0 1 1.96.4 4.6 4.6 0 0 1 1.475 1.042c.07.075.189.084.267.016l1.899-1.643a.183.183 0 0 0 .018-.26c-1.428-1.597-3.665-2.42-5.793-2.42-4.284 0-7.322 2.89-7.322 7.14 0 2.104.755 3.874 2.028 5.125s3.087 1.985 5.18 1.985c2.624 0 4.736-1.007 5.975-2.298a.183.183 0 0 0-.015-.265zm22.65-1.953a.185.185 0 0 1-.185.164h-9.852a.18.18 0 0 0-.178.226c.49 1.817 1.952 2.917 3.947 2.917a4.44 4.44 0 0 0 1.948-.404 4.4 4.4 0 0 0 1.477-1.107.14.14 0 0 1 .192-.017l1.98 1.725c.076.066.087.18.022.257-1.196 1.41-3.134 2.436-5.793 2.436-4.09 0-7.176-2.833-7.176-7.137 0-2.111.727-3.882 1.938-5.132a6.7 6.7 0 0 1 2.253-1.49 6.8 6.8 0 0 1 2.67-.49c4.146 0 6.827 2.915 6.827 6.942q-.008.556-.07 1.11m-10.156-2.613a.18.18 0 0 0 .176.228h6.551c.121 0 .21-.113.177-.23-.447-1.545-1.58-2.576-3.339-2.576a3.65 3.65 0 0 0-1.51.274 3.6 3.6 0 0 0-1.255.869c-.368.417-.64.907-.8 1.435m19.974-5.439a.19.19 0 0 1 .19.188v3.149c0 .109-.094.195-.202.187a12 12 0 0 0-.78-.042c-2.453 0-3.894 1.727-3.894 3.994v6.398a.19.19 0 0 1-.187.187H60.05a.19.19 0 0 1-.187-.187V8.54c0-.104.084-.188.187-.188h2.813c.103 0 .187.084.187.188v1.893a.02.02 0 0 0 .035.012c1.1-1.469 2.722-2.285 4.437-2.285zm7.618 8.248a.06.06 0 0 1 .096.009l3.557 5.716a.19.19 0 0 0 .159.088h3.197a.188.188 0 0 0 .16-.286l-4.88-7.872a.19.19 0 0 1 .021-.225l4.7-5.186a.187.187 0 0 0-.138-.314H78.89a.19.19 0 0 0-.138.061l-5.438 5.929a.188.188 0 0 1-.326-.127V2.906a.187.187 0 0 0-.188-.187h-2.812a.19.19 0 0 0-.188.187v19.126c0 .103.084.187.188.187H72.8a.19.19 0 0 0 .188-.187v-3.01c0-.047.018-.093.05-.128z" clip-rule="evenodd"/></svg>
